src/assets/icon-print.svg

<svg enable-background="new 0 0 640 480" viewBox="0 0 640 480" xmlns="http://www.w3.org/2000/svg"><path d="m208 188c-1.6 0-3-1.4-3-3v-93c0-1.6 1.4-3 3-3h225c1.6 0 3 1.4 3 3v93c0 1.6-1.4 3-3 3z" fill="#fff"/><path d="m427 98v81h-213v-81zm6-18h-225c-6.6 0-12 5.4-12 12v93c0 6.6 5.4 12 12 12h225c6.6 0 12-5.4 12-12v-93c0-6.6-5.4-12-12-12z"/><path d="m100 342c-1.6 0-3-1.4-3-3v-195c0-1.6 1.4-3 3-3h442c1.6 0 3 1.4 3 3v195c0 1.6-1.4 3-3 3z" fill="#fff"/><path d="m536 150v183h-430v-183zm6-18h-442c-6.6 0-12 5.4-12 12v195c0 6.6 5.4 12 12 12h442c6.6 0 12-5.4 12-12v-195c0-6.6-5.4-12-12-12z"/><path d="m452 182c-3.9 0-7-3.1-7-7s3.1-7 7-7h14c3.9 0 7 3.1 7 7s-3.1 7-7 7z"/><path d="m466 171c2.2 0 4 1.8 4 4s-1.8 4-4 4h-14c-2.2 0-4-1.8-4-4s1.8-4 4-4zm0-6h-14c-5.5 0-10 4.5-10 10 0 5.5 4.5 10 10 10h14c5.5 0 10-4.5 10-10 0-5.5-4.5-10-10-10z"/><path d="m500 182c-3.9 0-7-3.1-7-7s3.1-7 7-7h14c3.9 0 7 3.1 7 7s-3.1 7-7 7z"/><path d="m514 171c2.2 0 4 1.8 4 4s-1.8 4-4 4h-14c-2.2 0-4-1.8-4-4s1.8-4 4-4zm0-6h-14c-5.5 0-10 4.5-10 10 0 5.5 4.5 10 10 10h14c5.5 0 10-4.5 10-10 0-5.5-4.5-10-10-10z"/><g stroke="#000" stroke-miterlimit="10"><path d="m138 284h364" fill="none" stroke-width="18"/><path d="m464 412h-284c-6.6 0-12-5.4-12-12v-116h308v116c0 6.6-5.4 12-12 12z" fill="#fff" stroke-width="18"/><path d="m196.1 316.8 248.7-1.6" fill="none" stroke-width="6"/><path d="m196.2 346.8 248.6-1.6" fill="none" stroke-width="6"/><path d="m196.2 376.8 248.7-1.6" fill="none" stroke-width="6"/></g></svg>

<svg version="1.1" id="Layer_1" xmlns="http://www.w3.org/2000/svg" xmlns:xlink="http://www.w3.org/1999/xlink" x="0px" y="0px" viewBox="0 0 640 480" enable-background="new 0 0 640 480" xml:space="preserve"><g><path fill="#FFFFFF" d="M208,188c-1.6,0-3-1.4-3-3V92c0-1.6,1.4-3,3-3h225c1.6,0,3,1.4,3,3v93c0,1.6-1.4,3-3,3H208z"/><path d="M427,98v81H214V98H427 M433,80H208c-6.6,0-12,5.4-12,12v93c0,6.6,5.4,12,12,12h225c6.6,0,12-5.4,12-12V92C445,85.4,439.6,80,433,80L433,80z"/></g><g><path fill="#FFFFFF" d="M100,342c-1.6,0-3-1.4-3-3V144c0-1.6,1.4-3,3-3h442c1.6,0,3,1.4,3,3v195c0,1.6-1.4,3-3,3H100z"/><path d="M536,150v183H106V150H536 M542,132H100c-6.6,0-12,5.4-12,12v195c0,6.6,5.4,12,12,12h442c6.6,0,12-5.4,12-12V144C554,137.4,548.6,132,542,132L542,132z"/></g><g><path d="M452,182c-3.9,0-7-3.1-7-7s3.1-7,7-7h14c3.9,0,7,3.1,7,7s-3.1,7-7,7H452z"/><path d="M466,171c2.2,0,4,1.8,4,4s-1.8,4-4,4h-14c-2.2,0-4-1.8-4-4s1.8-4,4-4H466 M466,165h-14c-5.5,0-10,4.5-10,10v0c0,5.5,4.5,10,10,10h14c5.5,0,10-4.5,10-10v0C476,169.5,471.5,165,466,165L466,165z"/></g><g><path d="M500,182c-3.9,0-7-3.1-7-7c0-3.9,3.1-7,7-7h14c3.9,0,7,3.1,7,7c0,3.9-3.1,7-7,7H500z"/><path d="M514,171c2.2,0,4,1.8,4,4s-1.8,4-4,4h-14c-2.2,0-4-1.8-4-4s1.8-4,4-4H514 M514,165h-14c-5.5,0-10,4.5-10,10v0c0,5.5,4.5,10,10,10h14c5.5,0,10-4.5,10-10v0C524,169.5,519.5,165,514,165L514,165z"/></g><g><line fill="none" stroke="#000000" stroke-width="18" stroke-miterlimit="10" x1="138" y1="284" x2="502" y2="284"/></g><path fill="#FFFFFF" stroke="#000000" stroke-width="18" stroke-miterlimit="10" d="M464,412H180c-6.6,0-12-5.4-12-12V284h308v116C476,406.6,470.6,412,464,412z"/><line fill="none" stroke="#000000" stroke-width="6" stroke-miterlimit="10" x1="196.1" y1="316.8" x2="444.8" y2="315.2"/><line fill="none" stroke="#000000" stroke-width="6" stroke-miterlimit="10" x1="196.2" y1="346.8" x2="444.8" y2="345.2"/><line fill="none" stroke="#000000" stroke-width="6" stroke-miterlimit="10" x1="196.2" y1="376.8" x2="444.9" y2="375.2"/></svg>
